logos/tv.cnbc.svg

<?xml version="1.0" encoding="utf-8"?>
<!-- Generator: Adobe Illustrator 13.0.0, SVG Export Plug-In . SVG Version: 6.00 Build 14948)  -->
<!DOCTYPE svg PUBLIC "-//W3C//DTD SVG 1.1//EN" "http://www.w3.org/Graphics/SVG/1.1/DTD/svg11.dtd">
<svg version="1.1" id="Layer_1" xmlns="http://www.w3.org/2000/svg" xmlns:xlink="http://www.w3.org/1999/xlink" x="0px" y="0px"
	 width="272.419px" height="203.071px" viewBox="0 0 272.419 203.071" enable-background="new 0 0 272.419 203.071"
	 xml:space="preserve">
<g>
	<g>
		<path d="M47.704,172.315c-1.004-4.881-4.997-6.176-9.467-6.59C23.8,164.384,21.24,175.2,21.24,179.767
			c0,7.813,2.276,14.273,16.45,14.273c2.614,0,9.831-2.697,9.831-7.078h20.384c-0.822,12.996-22.621,16.109-32.128,16.109
			c-19.699,0-36.564-3.676-35.749-23.129c0.582-13.885,13.671-23.629,39.708-23.02c14.514,0.338,28.454,4.873,28.514,15.393H47.704z
			"/>
		<path d="M251.872,172.315c-1.004-4.881-4.998-6.176-9.467-6.59c-14.438-1.342-16.996,9.475-16.996,14.041
			c0,7.813,2.275,14.273,16.451,14.273c2.611,0,9.826-2.697,9.826-7.078h20.387c-0.818,12.996-22.621,16.109-32.129,16.109
			c-19.699,0-36.564-3.676-35.748-23.129c0.582-13.885,13.674-23.629,39.705-23.02c14.516,0.338,28.457,4.873,28.518,15.393H251.872
			z"/>
		<path d="M71.889,157.851h26.462l22.578,31.73h0.183v-31.73h16.96v44.059H112.72l-23.686-31.73h-0.186v31.73h-16.96V157.851z"/>
		<path d="M143.306,157.851h32.143c15.447,0,24.533,4.326,24.533,10.861c0,3.859-3.803,8.625-12.283,10.027v0.123
			c10.211,0.609,13.98,7.08,13.98,10.959c0,7.766-8.859,12.088-26.137,12.088h-32.236V157.851z M161.913,174.97h5.328
			c8.207,0,12.561-0.641,12.561-4.059c0-3.66-3.623-4.883-11.01-4.883h-6.879V174.97z M161.913,192.677h5.328
			c9.891,0,13.52-1.039,13.52-4.455c0-3.662-4.582-4.885-11.969-4.885h-6.879V192.677z"/>
	</g>
	<path fill="#FFFFFF" d="M249.368,150.651c-4.334,1.92-9.133,2.775-14.248,2.775l-204.85-0.162
		c-11.583-0.904-22.959-10.461-26.194-21.887c-3.442-11.426-0.104-23.227,7.462-31.555c7.305-7.527,16.697-10.676,27.133-9.503
		c-9.81-6.674-13.932-17.727-12.521-29.579c1.304-10.302,8.764-20.341,18.314-24.45c10.906-4.913,24.679-2.243,33.237,6.032
		c-1.773-6.032-2.713-14.682-0.26-20.875C80.36,11.678,89.856,2.976,99.51,0.946c12.889-2.775,25.15,2.084,32.558,13.135
		c1.41,2.082,2.246,4.432,3.34,6.621c3.707-10.572,14.402-19.329,25.258-20.45c11.217-1.441,21.811,3.364,28.854,12.813
		c5.479,7.85,7.355,19.541,3.809,28.991h0.418c8.137-7.313,20.453-9.983,30.941-5.926c10.018,3.31,18.521,13.987,19.879,24.505
		c1.512,11.639-2.453,21.836-11.27,29.365c13.357-0.801,26.035,6.299,31.514,18.738c4.803,10.84,3.396,25.359-4.746,34.17
		C256.778,146.22,253.28,148.995,249.368,150.651z"/>
	<path fill="#0089D0" d="M227.661,90.32l-75.764,50.667l25.516-60.65l12.105-28.244c4.904-9.128,14.137-14.947,24.211-15.108
		c9.65,0,18.209,4.646,23.635,12.974c5.586,8.328,5.898,21.943,0.313,30.379C235.175,84.286,231.47,87.81,227.661,90.32z"/>
	<path fill="#6460AA" d="M189.937,42.484l-37.465,88.571l-1.67-9.662l-11.27-72.61c-0.471-4.432,1.354-8.168,4.9-10.624l5.377-3.203
		c0.314-1.122-1.252-1.495-1.984-1.869l-10.539-0.106c-0.676-10.466,3.914-19.966,12.783-25.679
		c6.889-4.487,17.377-5.66,25.047-2.03c9.967,4.058,16.904,14.683,17.061,25.52C192.126,34.796,191.448,38.907,189.937,42.484z"/>
	<path fill="#CE1141" d="M117.983,131.378L81.093,42.591c-3.967-9.504-2.298-21.997,4.486-29.686
		c7.252-8.062,17.479-11.479,28.02-8.754c8.922,2.188,17.27,10.73,19.463,19.859c1.043,3.418,0.885,7.527,0.678,11.265
		L117.983,131.378z"/>
	<path fill="#F37021" d="M39.142,87.117c-7.566-6.566-10.957-15.323-9.863-25.468c1.095-10.25,9.185-20.287,18.837-23.383
		c9.914-3.097,20.713-0.641,27.916,6.78c3.026,2.884,4.903,6.3,6.468,9.823l35.641,86.277L39.142,87.117z"/>
	<path fill="#FDB913" d="M31.044,150.146c-9.859-1.117-17.458-6.432-22.092-15.471c-4.693-9.125-3.474-22.073,2.836-30.165
		c6.875-8.239,16.824-12.384,26.848-10.35c4.085,0.659,7.511,2.417,10.732,4.441l76.698,51.565L31.044,150.146z"/>
	<path fill="#0DB14B" d="M239.269,150.146c9.863-1.117,17.457-6.432,22.094-15.471c4.693-9.125,3.473-22.073-2.836-30.165
		c-6.877-8.239-16.826-12.384-26.852-10.35c-4.084,0.659-7.508,2.417-10.73,4.441l-76.695,51.565L239.269,150.146z"/>
</g>
</svg>

<?xml version="1.0" encoding="UTF-8" standalone="no"?>
<!-- Created with Inkscape (http://www.inkscape.org/) -->

<svg
   xmlns:dc="http://purl.org/dc/elements/1.1/"
   xmlns:cc="http://creativecommons.org/ns#"
   xmlns:rdf="http://www.w3.org/1999/02/22-rdf-syntax-ns#"
   xmlns:svg="http://www.w3.org/2000/svg"
   xmlns="http://www.w3.org/2000/svg"
   xmlns:inkscape="http://www.inkscape.org/namespaces/inkscape"
   version="1.1"
   width="272.41901"
   height="203.071"
   viewBox="0 0 272.419 203.071"
   id="Layer_1"
   xml:space="preserve"><metadata
   id="metadata33"><rdf:RDF><cc:Work
       rdf:about=""><dc:format>image/svg+xml</dc:format><dc:type
         rdf:resource="http://purl.org/dc/dcmitype/StillImage" /></cc:Work></rdf:RDF></metadata><defs
   id="defs31" />
<g
   id="g3">
	<g
   id="g5">
		<path
   d="M 47.704,172.315 C 46.7,167.434 42.707,166.139 38.237,165.725 23.8,164.384 21.24,175.2 21.24,179.767 c 0,7.813 2.276,14.273 16.45,14.273 2.614,0 9.831,-2.697 9.831,-7.078 h 20.384 c -0.822,12.996 -22.621,16.109 -32.128,16.109 -19.699,0 -36.564,-3.676 -35.749,-23.129 0.582,-13.885 13.671,-23.629 39.708,-23.02 14.514,0.338 28.454,4.873 28.514,15.393 H 47.704 z"
   inkscape:connector-curvature="0"
   id="path7" />
		<path
   d="m 251.872,172.315 c -1.004,-4.881 -4.998,-6.176 -9.467,-6.59 -14.438,-1.342 -16.996,9.475 -16.996,14.041 0,7.813 2.275,14.273 16.451,14.273 2.611,0 9.826,-2.697 9.826,-7.078 h 20.387 c -0.818,12.996 -22.621,16.109 -32.129,16.109 -19.699,0 -36.564,-3.676 -35.748,-23.129 0.582,-13.885 13.674,-23.629 39.705,-23.02 14.516,0.338 28.457,4.873 28.518,15.393 h -20.547 z"
   inkscape:connector-curvature="0"
   id="path9" />
		<path
   d="m 71.889,157.851 h 26.462 l 22.578,31.73 h 0.183 v -31.73 h 16.96 V 201.91 H 112.72 L 89.034,170.18 h -0.186 v 31.73 h -16.96 v -44.059 z"
   inkscape:connector-curvature="0"
   id="path11" />
		<path
   d="m 143.306,157.851 h 32.143 c 15.447,0 24.533,4.326 24.533,10.861 0,3.859 -3.803,8.625 -12.283,10.027 v 0.123 c 10.211,0.609 13.98,7.08 13.98,10.959 0,7.766 -8.859,12.088 -26.137,12.088 h -32.236 v -44.058 z m 18.607,17.119 h 5.328 c 8.207,0 12.561,-0.641 12.561,-4.059 0,-3.66 -3.623,-4.883 -11.01,-4.883 h -6.879 v 8.942 z m 0,17.707 h 5.328 c 9.891,0 13.52,-1.039 13.52,-4.455 0,-3.662 -4.582,-4.885 -11.969,-4.885 h -6.879 v 9.34 z"
   inkscape:connector-curvature="0"
   id="path13" />
	</g>
	<path
   d="m 249.368,150.651 c -4.334,1.92 -9.133,2.775 -14.248,2.775 L 30.27,153.264 C 18.687,152.36 7.311,142.803 4.076,131.377 0.634,119.951 3.972,108.15 11.538,99.822 18.843,92.295 28.235,89.146 38.671,90.319 28.861,83.645 24.739,72.592 26.15,60.74 27.454,50.438 34.914,40.399 44.464,36.29 55.37,31.377 69.143,34.047 77.701,42.322 75.928,36.29 74.988,27.64 77.441,21.447 80.36,11.678 89.856,2.976 99.51,0.946 c 12.889,-2.775 25.15,2.084 32.558,13.135 1.41,2.082 2.246,4.432 3.34,6.621 3.707,-10.572 14.402,-19.329 25.258,-20.45 11.217,-1.441 21.811,3.364 28.854,12.813 5.479,7.85 7.355,19.541 3.809,28.991 h 0.418 c 8.137,-7.313 20.453,-9.983 30.941,-5.926 10.018,3.31 18.521,13.987 19.879,24.505 1.512,11.639 -2.453,21.836 -11.27,29.365 13.357,-0.801 26.035,6.299 31.514,18.738 4.803,10.84 3.396,25.359 -4.746,34.17 -3.287,3.312 -6.785,6.087 -10.697,7.743 z"
   inkscape:connector-curvature="0"
   id="path15"
   style="fill:#ffffff" />
	<path
   d="m 227.661,90.32 -75.764,50.667 25.516,-60.65 12.105,-28.244 c 4.904,-9.128 14.137,-14.947 24.211,-15.108 9.65,0 18.209,4.646 23.635,12.974 5.586,8.328 5.898,21.943 0.313,30.379 -2.502,3.948 -6.207,7.472 -10.016,9.982 z"
   inkscape:connector-curvature="0"
   id="path17"
   style="fill:#0089d0" />
	<path
   d="m 189.937,42.484 -37.465,88.571 -1.67,-9.662 -11.27,-72.61 c -0.471,-4.432 1.354,-8.168 4.9,-10.624 l 5.377,-3.203 c 0.314,-1.122 -1.252,-1.495 -1.984,-1.869 L 137.286,32.981 C 136.61,22.515 141.2,13.015 150.069,7.302 c 6.889,-4.487 17.377,-5.66 25.047,-2.03 9.967,4.058 16.904,14.683 17.061,25.52 -0.051,4.004 -0.729,8.115 -2.24,11.692 z"
   inkscape:connector-curvature="0"
   id="path19"
   style="fill:#6460aa" />
	<path
   d="M 117.983,131.378 81.093,42.591 c -3.967,-9.504 -2.298,-21.997 4.486,-29.686 7.252,-8.062 17.479,-11.479 28.02,-8.754 8.922,2.188 17.27,10.73 19.463,19.859 1.043,3.418 0.885,7.527 0.678,11.265 l -15.757,96.103 z"
   inkscape:connector-curvature="0"
   id="path21"
   style="fill:#ce1141" />
	<path
   d="M 39.142,87.117 C 31.576,80.551 28.185,71.794 29.279,61.649 c 1.095,-10.25 9.185,-20.287 18.837,-23.383 9.914,-3.097 20.713,-0.641 27.916,6.78 3.026,2.884 4.903,6.3 6.468,9.823 l 35.641,86.277 -78.999,-54.029 z"
   inkscape:connector-curvature="0"
   id="path23"
   style="fill:#f37021" />
	<path
   d="M 31.044,150.146 C 21.185,149.029 13.586,143.714 8.952,134.675 4.259,125.55 5.478,112.602 11.788,104.51 18.663,96.271 28.612,92.126 38.636,94.16 c 4.085,0.659 7.511,2.417 10.732,4.441 l 76.698,51.565 -95.022,-0.02 z"
   inkscape:connector-curvature="0"
   id="path25"
   style="fill:#fdb913" />
	<path
   d="m 239.269,150.146 c 9.863,-1.117 17.457,-6.432 22.094,-15.471 4.693,-9.125 3.473,-22.073 -2.836,-30.165 -6.877,-8.239 -16.826,-12.384 -26.852,-10.35 -4.084,0.659 -7.508,2.417 -10.73,4.441 l -76.695,51.565 95.019,-0.02 z"
   inkscape:connector-curvature="0"
   id="path27"
   style="fill:#0db14b" />
</g>
</svg>
